!!!id: BC112
!!!page: 139b
!!!COM: Anonymous
!!!LYR: Anonymous
!!!PTL@@FR: Les 100 plus belles chansons
!!!OTL@@FR: Bonsoir, mes amis, bonsoir!
!!!PUB: La Bonne Chanson, inc.
!!!YEM: On ne peut reproduire, enregistrer ou diffuser en tout ou en partie le présent ouvrage, sous quelque procédé que ce soit, électronique, mécanique, photographique, sonore, magnétique ou autre, sans avoir obtenu au préalable l'autorisation écrite de l'éditrice.
!!!PDT: 2011
!!!SMA: 2012 Bibliothèque nationale du Québec; Biblothèque nationale du Canada
!!!AGN-Laforte: strophique
!!!AGN-refrain: initial
!!!AGN-metre: 1:2(7)
!!!AGN-topic: [amitié]
!!!AGN-rime: n/a
**kern	**text
*clefG2	*
*k[f#]	*
*G:	*
*M2/4	*
*	*
*>Refrain	*>Refrain
*	*refrain
*	*italic
*	*rline:1
8d	Bon-
=1	=1
8g	-soir,
16g	mes
16g	a-
8g	-mis,
8b	bon-
=2	=2
4g	-soir,
8r	.
*	*rline:1r
8d	Bon-
=3	=3
8b	-soir,
16b	mes
16b	a-
8b	mis,
8dd	bon-
!!LO:PB:g=original
=4	=4
4b	-soir!
8r	.
*	*rline:1a5
8g	Bon-
=5	=5
8dd	-soir,
16dd	mes
16dd	a-
8dd	-mis,
*	*rline:1a5
8ee	Bon-
=6	=6
8cc	-soir,
16cc	mes
16cc	a-
8cc	-mis,
*	*rline:1r
8dd	Bon-
!!LO:PB:g=original
=7	=7
8b	-soir
16b	mes
16b	a-
8b	-mis,
8g	bon-
=8	=8
2dd	-soir!
=9	=9
*	*rline:2
4.dd	Au
8dd	re-
=||10	=||10
*M4/4	*
*met(c)	*
2gg;	-voir!
*	*Xitalic
*	*Xrefrain
4r	.
!!LO:TX:a:B:t=Fin:rj
=||	=||
*>Verse	*>Verse
*	*pline:1
8dd	Quand
8cc	on
!!LO:PB:g=original
=11	=11
4b	est
4b	si
4b	bien
4b	en-
=12	=12
2dd	-sem-
4cc	-ble,
*	*pline:2
8cc	Pour-
8b	-quoi
=13	=13
4a	donc
4a	se
4dd	sé-
4dd	-pa-
=14	=14
[2b	-rer?
8b]	.
8r	.
*	*pline:1r
8dd	Quand
8cc	on
!!LO:PB:g=original
=15	=15
4b	est
4b	si
4b	bien
4b	en-
=16	=16
2dd	-sem-
4cc	-ble,
*	*pline:2r
8cc	Pour-
8b	-quoi
=17	=17
4a	donc
4a	se
4dd	sé-
4dd	-pa-
=||18	=||18
*M2/4	*
4g	-rer?
8r	.
=:||	=:||
*-	*-
!!!EED: Ève Poudrier
!!!EEV: 2026/04/20
!!!RNB: Dal segno replaced by repeats.
